X: 28550
T: Murdo MacKenzie Of Torridon
R: jig
M: 6/8
K: Aminor
|:A>ee e3|A>ee d>Bg|G>Bd d>Bd|(eg>)G B>AG|A>ee e3|
A>ee d>Ba|g>fe d>eg|1 e>dB A2 B:|2 e>dB A2 B||
|:A>aa a3|A>aa g>ea|g>fe d>ef|g>Gd B>AG|
[1 A>aa a3|A>aa g>ea|g>fe d>eg|e>dB A2 B:|
[2 e3 (A2 e)|d>Bd e2 a|g>fe d>eg|e>dB A2 B||
|:A3 e3|A2 e d>Bg|B3 G3|(eg>)G B>AG|
A3 e3|(A2 e) d>Ba|g>fe d>eg|e>dB A2 B:|
|:A>aA g>Aa|A>gA a>Aa|g>fe d>ef|g>Gd B>AG|
[1 A>aA g>Aa|A>gA a>Aa|g>fe d>eg|e>dB A2 B:|
[2 e3 (A2 e)|d>Bd e2 a|g>fe d>eg|e>dB A3||

